X:1
T:Bristol (Hodges), CM
T:Bristol (Hodges), CM
T:Edward Hodges, 1841
T:Public Domain Courtesy of the Cyber Hymnal™
C:Edward Hodges, 1841
Z:Public Domain
Z:Courtesy of the Cyber Hymnal™
%%score ( 1 2 ) ( 3 4 )
L:1/8
Q:1/4=110
M:4/4
K:A
V:1 treble 
V:2 treble 
V:3 bass 
V:4 bass 
V:1
 [CE]2 | [EA]2 [Ec]2 [DF]2 [Dd]2 | [Ec]2 [DB]2 [CA]2 [Ee]2 | [Ec]2 (BA) [EG]2 [^DF]2 | E6 (cd) | %5
 [Ee]2 (AB) [Cc]2 (FG) | [EA]2 (Bc) [Ed]2 [EG]2 | [EA]2 [Ec]2 [Ec]2 [DB]2 | [CA]6 |] %9
V:2
 x2 | x8 | x8 | x2 F2 x4 | E6 E2 | x2 F2 x D2 x | x2 E2 x4 | x8 | x6 |] %9
V:3
 [A,,A,]2 | [C,A,]2 [A,,A,]2 [D,A,]2 [B,,B,]2 | [E,A,]2 [E,G,]2 [A,,A,]2 [G,,B,]2 | %3
 [A,,A,]2 [A,,C]2 [B,,B,]2 [B,,A,]2 | [E,G,]6 A,2 | [G,B,]2 [F,C]2 [E,G,]2 (A,B,) | %6
 [C,A,]2 ([B,,G,][A,,A,]) [G,,B,]2 [D,B,]2 | [C,A,]2 [A,,A,]2 [E,A,]2 [E,G,]2 | [A,,A,]6 |] %9
V:4
 x2 | x8 | x8 | x8 | x6 A,2 | x6 D,2 | x8 | x8 | x6 |] %9

